symbolic/status/network-cellular-cdma-1x-symbolic.svg

<svg xmlns="http://www.w3.org/2000/svg" width="16" height="16" enable-background="new"><defs><filter id="a" color-interpolation-filters="sRGB"><feBlend mode="darken" in2="BackgroundImage"/></filter></defs><path d="M3 1S1 1 1 3.063V13c0 2 2 2 2 2h10c2 0 2-2 2-2V3s0-2-2-2zm3 2h4c2 0 2.052 2.351 2 2v1h-2V5H6v6h4v-1h2v1s0 2-2 2H6s-2 0-2-2V5c0-2 2-2 2-2z" color="#5d656b" fill="#5d656b"/></svg>

<svg xmlns="http://www.w3.org/2000/svg" width="16" height="16" version="1.1">
 <path style="fill:#323a41" d="M 3 1 C 1.892 1 1 1.892 1 3 L 1 13 C 1 14.108 1.892 15 3 15 L 13 15 C 14.108 15 15 14.108 15 13 L 15 3 C 15 1.892 14.108 1 13 1 L 3 1 z M 6 3 L 10 3 C 12 3 12 5 12 5 L 12 6 L 10 6 L 10 5 L 6 5 L 6 11 L 10 11 L 10 10 L 12 10 L 12 11 C 12 11 12 13 10 13 L 6 13 C 6 13 4 13 4 11 L 4 5 C 4 3 6 3 6 3 z"/>
</svg>
